X: 11
T:Buck Mountain
L:1/8
R: Reel
C: Traditional
S:https://tunearch.org//wiki/Buck_Mountain
M: C
K: D
|: "D" fafe dB A2|f3a f3f-|fafe dB A2|f3 a f3 g-|"G"gagf ed B2|
e3 a e2 fg|1 "A" a4 a2 b2|a2g2f2e2:|2"A"abag fdec| "D"d5 dB|]
|:[AF][AF]- [A2F2] [A2F2] dc| "G" [BG][BG]-[B2G2][B3G3] e-|"A"efed cBAc|"D"dcde fedB|
[AF][AF]-[A2F2] [A2F2] dc|"G"[BG][BG]-[B2G2] [B3G3] e-|"A"efed cABc|1"D" d6 dB:|2"D"d8|]

